X: 387
T: Missa Fratres Ego Enim Accepi Agnus
C: Giovanni Perluigi da Palestrina
L: 1/4
M: 4/2
N: Derived from Agnus_02.krn
V: 1 clef=treble
V: 2 clef=treble
V: 3 clef=treble-8
V: 4 clef=bass
V: 5 clef=treble
V: 6 clef=treble
V: 7 clef=treble-8
V: 8 clef=bass
K: F
[V:1] z8 | 
[V:2] G8 | 
[V:3] z8 | 
[V:4] z8 | 
[V:5] z8 | 
[V:6] z8 | 
[V:7] z8 | 
[V:8] z8 | 
[V:1] d8 | 
[V:2] D4G3A | 
[V:3] z8 | 
[V:4] z8 | 
[V:5] z8 | 
[V:6] z8 | 
[V:7] z8 | 
[V:8] z8 | 
[V:1] G4d3e | 
[V:2] BcB4AG | 
[V:3] z4d4- | 
[V:4] z8 | 
[V:5] z8 | 
[V:6] z8 | 
[V:7] z8 | 
[V:8] z8 | 
[V:1] fedcB4 | 
[V:2] A2F2G4 | 
[V:3] d4G4 | 
[V:4] z8 | 
[V:5] z8 | 
[V:6] z8 | 
[V:7] z8 | 
[V:8] z8 | 
[V:1] A2d2c2f2- | 
[V:2] F2B2AGFE | 
[V:3] d2>e2fedc | 
[V:4] z8 | 
[V:5] z8 | 
[V:6] z8 | 
[V:7] z8 | 
[V:8] z8 | 
[V:1] fed4c2 | 
[V:2] D4E3F | 
[V:3] B4A4 | 
[V:4] z8 | 
[V:5] z8 | 
[V:6] z8 | 
[V:7] z8 | 
[V:8] z8 | 
[V:1] B2G2B4 | 
[V:2] GA2<B2AG2- | 
[V:3] d8- | 
[V:4] G,8 | 
[V:5] z8 | 
[V:6] z8 | 
[V:7] z8 | 
[V:8] z8 | 
[V:1] A4B3c | 
[V:2] G2^F2G2B2- | 
[V:3] d4z2G2- | 
[V:4] D,4G,3A, | 
[V:5] z8 | 
[V:6] z8 | 
[V:7] z8 | 
[V:8] z8 | 
[V:1] d8- | 
[V:2] B2B2B4 | 
[V:3] GABcd2g2- | 
[V:4] B,CB,4A,G, | 
[V:5] z8 | 
[V:6] z8 | 
[V:7] z8 | 
[V:8] G,8 | 
[V:1] d8 | 
[V:2] A4B3A | 
[V:3] g2^f2g2G2- | 
[V:4] D4G,2B,2- | 
[V:5] z8 | 
[V:6] z8 | 
[V:7] d8 | 
[V:8] D,4G,3A, | 
[V:1] z2g4g2 | 
[V:2] G4B4 | 
[V:3] GABc2<B2c | 
[V:4] B,A,G,F,G,4 | 
[V:5] z8 | 
[V:6] z8 | 
[V:7] G4d3e | 
[V:8] B,CB,4A,G, | 
[V:1] f2>d2efg2- | 
[V:2] A2D2G4 | 
[V:3] d2d2G4 | 
[V:4] D,4C,2G,2 | 
[V:5] z8 | 
[V:6] z4G4- | 
[V:7] fgf2e2d2 | 
[V:8] A,2B,2C2=B,2 | 
[V:1] gfe2d4 | 
[V:2] E2>F2G4 | 
[V:3] G8 | 
[V:4] C,4z4 | 
[V:5] z4d4- | 
[V:6] G4D4 | 
[V:7] e2c4BA | 
[V:8] C2C,2G,4- | 
[V:1] z8 | 
[V:2] z8 | 
[V:3] z8 | 
[V:4] z8 | 
[V:5] d4G4 | 
[V:6] G2>A2BcB2- | 
[V:7] B2>c2d4 | 
[V:8] G,4G,4- | 
[V:1] z8 | 
[V:2] z8 | 
[V:3] z8 | 
[V:4] z8 | 
[V:5] d2>e2fgf2- | 
[V:6] B2AG2<A2G | 
[V:7] G2d2>c2de | 
[V:8] G,2F,E,D,2D2- | 
[V:1] z8 | 
[V:2] z8 | 
[V:3] z8 | 
[V:4] z8 | 
[V:5] f2ede2f2- | 
[V:6] AB2<c2BAG | 
[V:7] fg2<a2gfe | 
[V:8] D2CB,A,4 | 
[V:1] z8 | 
[V:2] z8 | 
[V:3] z8 | 
[V:4] z8 | 
[V:5] fed4^c2 | 
[V:6] F2G2A4 | 
[V:7] d2d2e4 | 
[V:8] B,4A,4 | 
[V:1] z2A2B4 | 
[V:2] z2^F2G4 | 
[V:3] z2d2d4 | 
[V:4] z2D,2G,4 | 
[V:5] d4z2d2 | 
[V:6] A4z2G2 | 
[V:7] d4z2d2 | 
[V:8] D,4z2G,2 | 
[V:1] A4z2^c2 | 
[V:2] FDFGA2A2 | 
[V:3] d4z2e2 | 
[V:4] D,4z2A,2 | 
[V:5] d4^c4 | 
[V:6] A4A4 | 
[V:7] f4e4 | 
[V:8] D4A,4 | 
[V:1] d2e2f2e2 | 
[V:2] A2A2F2A2 | 
[V:3] f2a2a4 | 
[V:4] D2^C2D2A,2 | 
[V:5] z2e2d2e2 | 
[V:6] z2A2A4- | 
[V:7] z4z2A2 | 
[V:8] z2A,2D2^C2 | 
[V:1] z2d2d3c | 
[V:2] z2A2G2D2 | 
[V:3] f2d2dcBA | 
[V:4] z2D,2G,4- | 
[V:5] f4d4- | 
[V:6] A2A2B2B,2- | 
[V:7] a2f2g4 | 
[V:8] D2>C2B,A,G,2- | 
[V:1] B2A2G4 | 
[V:2] D8 | 
[V:3] G2A2=B4 | 
[V:4] G,2^F,2G,4 | 
[V:5] d8 | 
[V:6] B,C2<D2G,G2- | 
[V:7] d4z2d2 | 
[V:8] G,2D,2z2G,2 | 
[V:1] G4z4 | 
[V:2] C4z4 | 
[V:3] c4z4 | 
[V:4] C,4z4 | 
[V:5] z2c2c2d2 | 
[V:6] G2G2G2G2 | 
[V:7] e6d2 | 
[V:8] C6=B,2 | 
[V:1] z2c2A4 | 
[V:2] z2G2F4 | 
[V:3] z2c2c4 | 
[V:4] C,4F,4 | 
[V:5] c4c2f2 | 
[V:6] G4A2c2 | 
[V:7] e4f2f2 | 
[V:8] C4F,2F,2 | 
[V:1] B4z2c2 | 
[V:2] F4z2A2 | 
[V:3] d4z2c2 | 
[V:4] B,,4z2F,2 | 
[V:5] d4c4 | 
[V:6] B4A4 | 
[V:7] f4f4- | 
[V:8] B,4F,4 | 
[V:1] d2c2B2c2 | 
[V:2] F2F2D2A2 | 
[V:3] B2F2f2f2 | 
[V:4] B,2A,2B,2F,2 | 
[V:5] z2c2d2c2 | 
[V:6] z2A2F2F2 | 
[V:7] f4z2F2 | 
[V:8] z2F,2B,2A,2 | 
[V:1] z2c2d2c2- | 
[V:2] z2A2F2F2 | 
[V:3] z2c2B2F2 | 
[V:4] z2F,2B,2A,2 | 
[V:5] B2c2z2c2 | 
[V:6] D2A2z2A2 | 
[V:7] B2A2B2c2 | 
[V:8] B,2F,2z2F,2 | 
[V:1] cBB4A2 | 
[V:2] D2>E2FGA2 | 
[V:3] f8 | 
[V:4] B,4F,4 | 
[V:5] d2d2c4 | 
[V:6] F2F2F4- | 
[V:7] zfdBc4 | 
[V:8] B,,2B,,2F,4 | 
[V:1] B8 | 
[V:2] F2F2>E2DC | 
[V:3] d4z2f2- | 
[V:4] B,8 | 
[V:5] d8 | 
[V:6] F2D2D4 | 
[V:7] B8 | 
[V:8] B,,8 | 
[V:1] f2>e2d2c2 | 
[V:2] B,2F2B2A2- | 
[V:3] fedcB2f2 | 
[V:4] z8 | 
[V:5] z8 | 
[V:6] z8 | 
[V:7] z8 | 
[V:8] z8 | 
[V:1] B2G2A4 | 
[V:2] AGG4^F2 | 
[V:3] g2e2d4 | 
[V:4] z8 | 
[V:5] z8 | 
[V:6] z8 | 
[V:7] z8 | 
[V:8] z8 | 
[V:1] G2G4A2 | 
[V:2] G4c3B | 
[V:3] e2e4e2 | 
[V:4] z2C2>B,2A,G, | 
[V:5] z8 | 
[V:6] z8 | 
[V:7] z8 | 
[V:8] z8 | 
[V:1] c2>B2A2G2 | 
[V:2] A2G2F2D2 | 
[V:3] f2e2>d2d2- | 
[V:4] F,2C2D2B,2 | 
[V:5] z8 | 
[V:6] z8 | 
[V:7] z8 | 
[V:8] z8 | 
[V:1] A4F3G | 
[V:2] E4D3E | 
[V:3] d2^c2d4- | 
[V:4] A,4D,4- | 
[V:5] z8 | 
[V:6] z2A2>G2FE | 
[V:7] z4z2a2- | 
[V:8] z8 | 
[V:1] A4z4 | 
[V:2] F4z4 | 
[V:3] d4z4 | 
[V:4] D,4z4 | 
[V:5] z4z2d2- | 
[V:6] D4F4 | 
[V:7] agfed4 | 
[V:8] z2D2>C2B,A, | 
[V:1] z8 | 
[V:2] z8 | 
[V:3] z8 | 
[V:4] z8 | 
[V:5] dcBAG2B2 | 
[V:6] G2>F2E2D2 | 
[V:7] d4e2g2 | 
[V:8] G,2B,2C2G,2 | 
[V:1] z8 | 
[V:2] z8 | 
[V:3] z8 | 
[V:4] z8 | 
[V:5] c2d4c2- | 
[V:6] C2B,CDEFE/ F/ | 
[V:7] fedcB2c2 | 
[V:8] A,2B,4A,2 | 
[V:1] z4z2g2- | 
[V:2] z2G2>F2ED | 
[V:3] z4g3f | 
[V:4] z8 | 
[V:5] c2=B2c4- | 
[V:6] G4E4- | 
[V:7] d4c4- | 
[V:8] G,4C,4- | 
[V:1] gfedc2e2 | 
[V:2] C2G2A4- | 
[V:3] edcBA2c2 | 
[V:4] z2C2>B,2A,G, | 
[V:5] c4z4 | 
[V:6] E4z4 | 
[V:7] c4z4 | 
[V:8] C,4z4 | 
[V:1] f2>e2d2c2- | 
[V:2] A2c2B2A2- | 
[V:3] d2c2f3e | 
[V:4] F,2A,2B,2F,2 | 
[V:5] z8 | 
[V:6] z8 | 
[V:7] z8 | 
[V:8] z8 | 
[V:1] cBB2A4 | 
[V:2] AGG4^F2 | 
[V:3] d8 | 
[V:4] G,4D,4 | 
[V:5] z8 | 
[V:6] z4D3C | 
[V:7] z4z2d2- | 
[V:8] z8 | 
[V:1] G4z4 | 
[V:2] G8- | 
[V:3] d4z2g2- | 
[V:4] G,8 | 
[V:5] d2>c2BAG2- | 
[V:6] B,A,G,2D2E2- | 
[V:7] dcBAG2G2 | 
[V:8] z2G,2>F,2E,D, | 
[V:1] g2>f2edc2 | 
[V:2] G4z2A2- | 
[V:3] gfedc2c2 | 
[V:4] z2C2>B,2A,G, | 
[V:5] G2G2c3B | 
[V:6] EFG4A2 | 
[V:7] c2>d2e2f2 | 
[V:8] C,4C,2F,2- | 
[V:1] c2f2>e2dc | 
[V:2] A2A2d4 | 
[V:3] f2>e2dcB2 | 
[V:4] F,2F,2B,4- | 
[V:5] AGF2f2fe | 
[V:6] A4B4- | 
[V:7] f4f4 | 
[V:8] F,E,D,C,B,,2B,,2 | 
[V:1] Bcd4d2 | 
[V:2] d4z2B2- | 
[V:3] d8 | 
[V:4] B,2G,2B,3A, | 
[V:5] dc2<B2cd2- | 
[V:6] B4d4 | 
[V:7] z2d2d2B2- | 
[V:8] B,6G,2 | 
[V:1] B4A4 | 
[V:2] BAG2F2A2- | 
[V:3] d4d4 | 
[V:4] G,4D,4 | 
[V:5] d2d2f4 | 
[V:6] D4D3E | 
[V:7] Bc2<d2ef2- | 
[V:8] B,2>C2D4 | 
[V:1] f4d2d2- | 
[V:2] AAF2G2G2- | 
[V:3] z2d2d2d2- | 
[V:4] D2>D2B,2G,2 | 
[V:5] d2d4B2 | 
[V:6] FGA2G4 | 
[V:7] f2F2B3A/ B/ | 
[V:8] D,4G,4 | 
[V:1] d2A2d4 | 
[V:2] G2^FEF4 | 
[V:3] de^fga2d2- | 
[V:4] D8 | 
[V:5] d4A4 | 
[V:6] A4D4 | 
[V:7] A8 | 
[V:8] D,8 | 
[V:1] d8- | 
[V:2] G8- | 
[V:3] dc=BA=B4 | 
[V:4] G,8- | 
[V:5] =B8- | 
[V:6] D8- | 
[V:7] G8- | 
[V:8] G,8- | 
[V:1] d8 |]  
[V:2] G8 |]  
[V:3] =B8 |]  
[V:4] G,8 |]  
[V:5] B8 |]  
[V:6] D8 |]  
[V:7] G8 |]  
[V:8] G,8 |]  

